X: 1
T:Owen James Baines
M:3/4
L:1/8
Q:120
C:1997 by David de la Barre
R:slow air
N:written for my step-son
K:G
|:gf | "Em"e3 f e2 | "C" e3 d c2 | "G" d3 B AG | "D" G A3 BA |
"Em" G4 E2 | "C" E4 DE | "Bm" D6-| "D" D4 :|
|: DE | "Em" G4 GA | "G" B d3 B/2A/2G | "D" A4 AG |"Bm"FE D2 BA |
"Em" G4 E2 | "C" E4 DE |1 "D" D6-|"Bm"D4:|2"D" D6-|D4||
%1997 David de la Barre
